!!!COA:	Josquin des Prez
!!!CDT:	~1450-1521/08/27
!!!OPR:	Missa Ferialis
!!!ONM:	5
!!!OTL:	Agnus Dei
!!!AGN:	Mass; Agnus Dei
!!!SCT:	NJE 4.1
!!!SCA:	New Josquin Edition 4.1
!!!voices:	4
!!!voices-OPR:	4
**kern	**kern	**kern	**kern
*staff4	*staff3	*staff2	*staff1
*Ivox	*Ivox	*Ivox	*Ivox
*I"Bassus	*I"Tenor	*I"Altus	*I"Superius
*I'B	*I'T	*I'A	*I'S
*>[A,B,C]	*>[A,B,C]	*>[A,B,C]	*>[A,B,C]
*>A	*>A	*>A	*>A
*clefF4	*clefGv2	*clefGv2	*clefG2
*k[]	*k[]	*k[]	*k[]
*M2/1	*M2/1	*M2/1	*M2/1
*met(C|)	*met(C|)	*met(C|)	*met(C|)
=1-	=1-	=1-	=1-
0G	[0G	0d	0g
=2	=2	=2	=2
0C	0G]	0c	0e
=3	=3	=3	=3
1BB	[0G	1d	1d
[1C	.	2c\	[1e
.	.	[2e\	.
=4	=4	=4	=4
2C/]	0G]	2e\]	2e/]
2D\	.	2d\	2f/
1E	.	2B\	1g
.	.	2c\	.
=5	=5	=5	=5
0D	[0A	1d	1.f
.	.	1f	.
.	.	.	[2a/
=6	=6	=6	=6
1C	0A]	1e	2a/]
.	.	.	2g/
[1D	.	1d	2f/
.	.	.	2e/
=7	=7	=7	=7
2D\]	[0A	2r	2.f/
2AA/	.	1A	.
.	.	.	4e/
1C	.	.	[1e
.	.	2G/	.
=8	=8	=8	=8
0D	0A]	2F/	2e/]
.	.	2E/	2d/
.	.	1F	2.d/
.	.	.	4c/
=9	=9	=9	=9
1AA	0A	1E	1e
1C	.	1e	1r
=10	=10	=10	=10
2D\	0r	2f\	[0a
1F	.	1d	.
2E\	.	2c\	.
=11	=11	=11	=11
2.D\	0r	2d\	0a]
.	.	1f	.
4C/	.	.	.
1AA	.	.	.
.	.	4e\	.
.	.	4d\	.
=12	=12	=12	=12
0r	0r	2e\	1.g
.	.	4d\	.
.	.	4c\	.
.	.	2B\	.
.	.	2c\	2a/
=13	=13	=13	=13
0r	0r	2d\	2b\
.	.	2e\	2cc\
.	.	2f\	[1a
.	.	[2d\	.
=14	=14	=14	=14
0r	0r	4d\]	2a/]
.	.	4c\	.
.	.	4B\	4g/
.	.	4A/	4f/
.	.	1B	4g/
.	.	.	4f/
.	.	.	4e/
.	.	.	4d/
=15	=15	=15	=15
1AA	0r	1A	2f/
.	.	.	1e
2C/	.	2G/	.
2D\	.	2F/	2d/
=16	=16	=16	=16
1AA	0r	2E/	1c
.	.	1A	.
1E	.	.	1B
.	.	2G/	.
=17	=17	=17	=17
1AA	[0A	1c	1e
1D	.	[1d	2f/
.	.	.	[2a/
=18	=18	=18	=18
2F\	0A_	2d\]	2a/]
2G\	.	2B\	4g/
.	.	.	4f/
1A	.	1c	1e
=19	=19	=19	=19
1D	0A_	1d	2d/
.	.	.	2f/
2E\	.	1c	2g/
[2F\	.	.	[2a/
=20	=20	=20	=20
4F\]	0A]	2d\	4a/]
4E\	.	.	4g/
2C/	.	2e\	1g
1D	.	1d	.
.	.	.	2f#i/
=21	=21	=21	=21
1.E	[0G	2B\	1g
.	.	1e	.
.	.	.	1b
2D\	.	2f\	.
=22	=22	=22	=22
1C	0G]	1e	1cc
1BB	.	1d	1dd
=23	=23	=23	=23
1AA	0A	1e	1cc
[1F	.	[1c	[1a
=24	=24	=24	=24
2F\]	1r	1c]	2a/]
2E\	.	.	2g/
1D	1A	1d	2.f/
.	.	.	4e/
=25	=25	=25	=25
1A	1c	1e	1e
1D	1d	1f	[1a
=26	=26	=26	=26
0E	0B	0e	2a/]
.	.	.	2g#i/
.	.	.	2.g#i/
.	.	.	4f#i/
=27	=27	=27	=27
1F	0A	1c	0a
1D	.	1d	.
=28	=28	=28	=28
1C	1r	1e	0r
1D	1F	1A	.
=29	=29	=29	=29
1E	1G	0r	0r
1AA	2F/	.	.
.	[2E/	.	.
=30	=30	=30	=30
2C/	2E/]	0r	0r
2D\	2D/	.	.
2.E\	2C/	.	.
.	4BB/	.	.
4F\	4AA/	.	.
=31	=31	=31	=31
2G\	2BB/	0r	0r
1A	2AA/	.	.
.	2D/	.	.
[2G\	[2E/	.	.
=32	=32	=32	=32
2G\]	4E/]	0r	0r
.	4D/	.	.
2F\	1D	.	.
1E	.	.	.
.	2C#i/	.	.
=33	=33	=33	=33
2D\	0D	1.d	0f
2.F\	.	.	.
4G\	.	.	.
2A\	.	2c\	.
=34	=34	=34	=34
2B\	0r	2d\	[0g
1c	.	2.e\	.
.	.	4f\	.
4B\	.	[2g\	.
4A\	.	.	.
=35	=35	=35	=35
4B\	0r	4g\]	0g]
4A\	.	4f\	.
4G\	.	4e\	.
4F\	.	4d\	.
1E	.	2.c#i\	.
.	.	4B\	.
=36	=36	=36	=36
1D	0r	1d	0f
2r	.	1r	.
2D\	.	.	.
=37	=37	=37	=37
2C/	0r	0r	[0e
2.E\	.	.	.
4F\	.	.	.
[2G\	.	.	.
=38	=38	=38	=38
4G\]	0r	0r	0e]
4F\	.	.	.
4E\	.	.	.
4D\	.	.	.
2.C#i/	.	.	.
4BB/	.	.	.
=39	=39	=39	=39
0D	0r	0f	1d
.	.	.	2r
.	.	.	2d/
=40	=40	=40	=40
0r	0r	[0g	2B/
.	.	.	2.c/
.	.	.	4d/
.	.	.	[2e/
=41	=41	=41	=41
0r	0r	1g]	4e/]
.	.	.	4f/
.	.	.	2g/
.	.	1f	2a/
.	.	.	[2dd\
=42	=42	=42	=42
0r	0r	0e	2dd\]
.	.	.	4cc#i\
.	.	.	4b\
.	.	.	1cc#i
=43	=43	=43	=43
[0D	[0F	0d	1dd
.	.	.	[1a
=44	=44	=44	=44
0D]	0F]	1A	2a/]
.	.	.	2g/
.	.	1B	1f
=45	=45	=45	=45
1C	[0G	1c	1e
1BB	.	1d	1d
=46	=46	=46	=46
0E	0G]	1e	0g
.	.	1c	.
=47	=47	=47	=47
1D	[0A	2d\	1f
.	.	1A	.
1C	.	.	1e
.	.	2G/	.
=48	=48	=48	=48
1D	0A]	2.F/	1d
.	.	4E/	.
1AA	.	1E	1c#i
=49	=49	=49	=49
0D	1A	0F	[0d
.	[1A	.	.
=50	=50	=50	=50
0BB	2A/]	0D	0d]
.	4G#i/	.	.
.	4F#i/	.	.
.	1G#i	.	.
=51	=51	=51	=51
0AA	0A	0E	1c
.	.	.	1r
=52	=52	=52	=52
0r	0r	2A/	0a
.	.	2c\	.
.	.	2d\	.
.	.	[2f\	.
=53	=53	=53	=53
0r	0r	4f\]	[0a
.	.	4e\	.
.	.	4d\	.
.	.	4c\	.
.	.	2d\	.
.	.	4c\	.
.	.	4B\	.
=54	=54	=54	=54
0r	0r	2A/	1a]
.	.	2d\	.
.	.	2B\	1g
.	.	[2c\	.
=55	=55	=55	=55
0r	0r	4c\]	1a
.	.	4d\	.
.	.	4e\	.
.	.	4f\	.
.	.	2g\	1b
.	.	[2e\	.
=56	=56	=56	=56
0r	0r	2e\]	0g
.	.	4d\	.
.	.	4c\	.
.	.	1B	.
=57	=57	=57	=57
2AA/	0A	1A	1a
2C/	.	.	.
2D\	.	1r	2f/
[2F\	.	.	[2a/
=58	=58	=58	=58
4F\]	[0A	0r	4a/]
4E\	.	.	4g/
4D\	.	.	4f/
4C/	.	.	4e/
2D\	.	.	2f/
4C/	.	.	4e/
4BB/	.	.	4d/
=59	=59	=59	=59
2AA/	1A]	0r	2c/
2D\	.	.	2f/
2BB/	1G	.	2d/
[2C/	.	.	[2e/
=60	=60	=60	=60
4C/]	1A	0r	2e/]
4D\	.	.	.
4E\	.	.	4d/
4F\	.	.	4c/
2G\	1B	.	2B/
[2E\	.	.	[2e/
=61	=61	=61	=61
2E\]	0G	1e	4e/]
.	.	.	4f/
4D\	.	.	2.g/
4C/	.	.	.
1BB	.	1d	.
.	.	.	4a/
.	.	.	2b\
=62	=62	=62	=62
2AA/	[0A	2c\	2cc\
2.D\	.	1f	1a
4AA/	.	.	.
2C/	.	[2e\	2g/
=63	=63	=63	=63
1D	0A]	2e\]	1f
.	.	2d\	.
2C/	.	1e	1e
[2AA/	.	.	.
=64	=64	=64	=64
2AA/]	1c	1A	2r
2AA/	.	.	1a
1E	1B	2r	.
.	.	[2e\	2g/
=65	=65	=65	=65
2AA/	2c\	2e\]	2a/
1C	1e	2c\	2g/
.	.	2A/	2cc\
2G\	2d\	2B\	[2b\
=66	=66	=66	=66
2A\	2c\	2c\	4b\]
.	.	.	4a/
2F\	2A/	2d\	1a
1E	1B	1e	.
.	.	.	2g#i/
=67	=67	=67	=67
0AAl	0Al	0el	0al
!!LO:LB:i:g=z
=68||	=68||	=68||	=68||
*>B	*>B	*>B	*>B
*clefF4	*clefGv2	*clefGv2	*clefG2
*k[]	*k[]	*k[]	*k[]
*M2/1	*M2/1	*M2/1	*M2/1
*met(C|)	*met(C|)	*met(C|)	*met(C|)
!!section: Agnus Dei II
!!!OMD: Agnus Dei II
0r	0r	1G	[0g
.	.	1c	.
=69	=69	=69	=69
0r	0r	2B\	0g]
.	.	2.c\	.
.	.	4d\	.
.	.	[2e\	.
=70	=70	=70	=70
0r	0r	2e\]	0g
.	.	4d\	.
.	.	4c\	.
.	.	1B	.
=71	=71	=71	=71
0r	1r	1A	[0a
.	[1A	2.c\	.
.	.	4d\	.
=72	=72	=72	=72
0r	2A/]	2e\	0a]
.	2.F/	1f	.
.	4G/	.	.
.	2A/	2e\	.
=73	=73	=73	=73
0r	1.D	2d\	1r
.	.	4c\	.
.	.	4B\	.
.	.	1A	[1a
.	2E/	.	.
=74	=74	=74	=74
0r	2F/	0r	2a/]
.	2G/	.	2b\
.	2E/	.	1cc
.	[2A/	.	.
=75	=75	=75	=75
0r	2A/]	0r	1b
.	2G/	.	.
.	2F/	.	2a/
.	2D/	.	[2dd\
=76	=76	=76	=76
0r	1F	0r	4dd\]
.	.	.	4cc\
.	.	.	2a/
.	1E	.	2g/
.	.	.	[2b\
=77	=77	=77	=77
0r	2D/	0r	4b\]
.	.	.	4a/
.	2C/	.	1a
.	1BB	.	.
.	.	.	2g#i/
=78	=78	=78	=78
1.AA	0r	0r	[0a
2BB/	.	.	.
=79	=79	=79	=79
1C	0r	0r	0a]
2D\	.	.	.
[2F\	.	.	.
=80	=80	=80	=80
2F\]	0r	1.A	0r
2E\	.	.	.
2F\	.	.	.
2G\	.	2B\	.
=81	=81	=81	=81
1E	0r	1c	0r
2r	.	2d\	.
[2D\	.	[2f\	.
=82	=82	=82	=82
2D\]	0r	2f\]	0r
2C/	.	2e\	.
2AA/	.	2.f\	.
[2D\	.	.	.
.	.	4g\	.
=83	=83	=83	=83
2D\]	0r	1e	0r
2C/	.	.	.
2D\	.	2r	.
[2F\	.	[2d\	.
=84	=84	=84	=84
4F\]	0r	2d\]	0r
4G\	.	.	.
1A	.	2c\	.
.	.	2A/	.
2F\	.	[2d\	.
=85	=85	=85	=85
1E	0r	2d\]	0r
.	.	2c#i\	.
1D	.	1d	.
=86	=86	=86	=86
1.F	1r	0r	1d
.	1D	.	[1f
2G\	.	.	.
=87	=87	=87	=87
1.A	1.F	1d	2f/]
.	.	.	2g/
.	.	[1f	[1a
[2F\	2G/	.	.
=88	=88	=88	=88
2F\]	1.A	2f\]	2a/]
2D\	.	2g\	1f
1D	.	[1a	.
.	[2F/	.	2d/
=89	=89	=89	=89
1r	2F/]	2a\]	1d
.	2D/	1f	.
1A	1D	.	1r
.	.	2d\	.
=90	=90	=90	=90
1F	2r	1d	1a
.	1d	.	.
1G	.	1r	1b
.	2e\	.	.
=91	=91	=91	=91
1D	1f	0a	2a/
.	.	.	1dd
1A	1e	.	.
.	.	.	2cc\
=92	=92	=92	=92
0D	0d	1.f	2.dd\
.	.	.	4cc\
.	.	.	1a
.	.	2d\	.
=93	=93	=93	=93
0r	0r	2e\	2g/
.	.	2f\	2a/
.	.	2d\	2f/
.	.	[2c\	[2e/
=94	=94	=94	=94
0r	0r	2c\]	4e/]
.	.	.	4f/
.	.	2B\	2g/
.	.	2c\	2a/
.	.	2d\	2b\
=95	=95	=95	=95
0r	0r	2e\	2cc\
.	.	2.f\	2.dd\
.	.	4e\	4cc\
.	.	4d\	4b\
.	.	4c\	4a/
=96	=96	=96	=96
0r	0r	2d\	2b\
.	.	2A/	1a
.	.	1B	.
.	.	.	2g#i/
=97	=97	=97	=97
1D	0r	0A	0a
1F	.	.	.
=98	=98	=98	=98
2E\	[0G	0r	0r
2.C/	.	.	.
4D\	.	.	.
[2E\	.	.	.
=99	=99	=99	=99
4E\]	0G]	0r	0r
4D\	.	.	.
2C/	.	.	.
1BB	.	.	.
=100	=100	=100	=100
*M3/3%2	*	*	*
*met(3)	*	*	*
3.AA/	0A	0r	0r
6BB/	.	.	.
3C/	.	.	.
3%2D	.	.	.
3C/	.	.	.
=101	=101	=101	=101
3D\	0F	0r	0r
3AA/	.	.	.
3D\	.	.	.
3.D\	.	.	.
6E\	.	.	.
3F\	.	.	.
=102	=102	=102	=102
3%2E	0G	0r	0r
3D\	.	.	.
3C/	.	.	.
3%2BB	.	.	.
=103	=103	=103	=103
*M2/1	*	*	*
*met(C|)	*	*	*
1AA	0A	1e	0r
1D	.	2.f\	.
.	.	4e\	.
=104	=104	=104	=104
2E\	0r	2c\	[0g
1C	.	1e	.
2BB/	.	2d\	.
=105	=105	=105	=105
2C/	0r	2e\	0g]
2D\	.	4d\	.
.	.	4c\	.
1E	.	1B	.
=106	=106	=106	=106
*	*	*M3/3%2	*
*	*	*met(3)	*
0r	0r	3.A/	0a
.	.	6B\	.
.	.	3c\	.
.	.	3%2d	.
.	.	3c\	.
=107	=107	=107	=107
0r	0r	3d\	0b
.	.	3G/	.
.	.	3d\	.
.	.	3d\	.
.	.	3e\	.
.	.	3f\	.
=108	=108	=108	=108
0r	0r	3%2e	0g
.	.	3d\	.
.	.	3c\	.
.	.	3%2B	.
=109	=109	=109	=109
*	*	*M2/1	*
*	*	*met(C|)	*
2AA/	1c	1A	0a
2C/	.	.	.
2D\	2B\	1r	.
[2F\	[2A/	.	.
=110	=110	=110	=110
2F\]	2A/]	0c	0r
4E\	4G/	.	.
4D\	4F/	.	.
1E	1G	.	.
=111	=111	=111	=111
2D\	2F/	0d	1a
1F	1A	.	.
.	.	.	1dd
2G\	[2B-i\	.	.
=112	=112	=112	=112
2E\	2B-\]	0e	2cc\
2A\	1A	.	2a/
1E	.	.	1b
.	2G/	.	.
=113	=113	=113	=113
2r	2A/	0f	1a
2.D\	1F	.	.
.	.	.	2r
4E\	.	.	.
[2F\	[2D/	.	[2d/
=114	=114	=114	=114
4F\]	2D/]	0d	4d/]
4E\	.	.	4e/
4D\	1A	.	2f/
4C/	.	.	.
1BB	.	.	4g/
.	.	.	4f/
.	2G/	.	4e/
.	.	.	4d/
=115	=115	=115	=115
1AA	2A/	[0e	2c/
.	2.c\	.	2A/
2r	.	.	2.c/
.	4d\	.	.
2AA/	2e\	.	.
.	.	.	4d/
=116	=116	=116	=116
2.C/	2A/	0e]	2e/
.	2r	.	2A/
4D\	.	.	.
2E\	1c	.	2r
2F\	.	.	2a/
=117	=117	=117	=117
2G\	2B\	0r	2b\
1A	2A/	.	1cc
.	1c	.	.
4G\	.	.	4b\
4F\	.	.	4a/
=118	=118	=118	=118
2E\	2B\	0r	2g/
2AA/	1c	.	1a
2A\	.	.	.
2B\	2G/	.	2g/
=119	=119	=119	=119
1c	1A	0r	2e/
.	.	.	1a
1B	1E	.	.
.	.	.	2g#i/
=120	=120	=120	=120
2.A\	2r	0r	1a
.	2A/	.	.
4G\	.	.	.
1E	2B\	.	2g/
.	[2c\	.	[2e/
=121	=121	=121	=121
2.C/	2c\]	0r	4e/]
.	.	.	4f/
.	4B\	.	2.g/
4D\	4A/	.	.
2E\	2G/	.	.
.	.	.	4f/
2AA/	[2A/	.	4e/
.	.	.	4d/
=122	=122	=122	=122
1AA	2A/]	0r	2c/
.	4G/	.	2.e/
.	4F/	.	.
1r	2E/	.	.
.	.	.	4d/
.	[2A/	.	2c/
=123	=123	=123	=123
1r	2A/]	0r	1B
.	2G#i/	.	.
2.AA/	1A	.	1A
4BB/	.	.	.
=124	=124	=124	=124
2.C/	2G/	0r	[0e
.	2.E/	.	.
4D\	.	.	.
2.E\	.	.	.
.	4F/	.	.
.	[2G/	.	.
4F\	.	.	.
=125	=125	=125	=125
2.G\	4G/]	1B	0e_
.	4F/	.	.
.	4E/	.	.
4F\	4D/	.	.
4E\	2C/	1c	.
4D\	.	.	.
[2C/	[2E/	.	.
=126	=126	=126	=126
4C/]	4E/]	1A	0e_
4BB/	4D/	.	.
1AA	2C/	.	.
.	1BB	1B	.
2GG#i/	.	.	.
=127	=127	=127	=127
1AA	2AA/	1c	0e]
.	1A	.	.
1E	.	1B	.
.	2G#i/	.	.
=128	=128	=128	=128
[0AAl	[0Al	[0Al	0f
=129	=129	=129	=129
0AA]	0A]	0A]	0el
!!LO:LB:i:g=z
=130||	=130||	=130||	=130||
*>C	*>C	*>C	*>C
*clefF4	*clefGv2	*clefGv2	*clefG2
*k[]	*k[]	*k[]	*k[]
*M2/1	*M2/1	*M2/1	*M2/1
*met(C|)	*met(C|)	*met(C|)	*met(C|)
!!section: Agnus III
!!!OMD: Agnus III
0r	0r	1G	0r
.	.	[1A	.
=131	=131	=131	=131
0r	0r	2A/]	0r
.	.	2G/	.
.	.	1F	.
=132	=132	=132	=132
0r	0r	1E	1g
.	.	2D/	[1a
.	.	[2F/	.
=133	=133	=133	=133
0r	0r	2F/]	2a/]
.	.	2G/	2g/
.	.	2A/	1f
.	.	[2d\	.
=134	=134	=134	=134
0r	0r	2d\]	1e
.	.	2c#i\	.
.	.	[1d	2d/
.	.	.	[2f/
=135	=135	=135	=135
0r	0r	2d\]	2f/]
.	.	2e\	2g/
.	.	1f	1a
=136	=136	=136	=136
0r	0r	1d	2b\
.	.	.	2dd\
.	.	1e	2cc\
.	.	.	[2b\
=137	=137	=137	=137
0r	0r	2d\	4b\]
.	.	.	4a/
.	.	2c\	1a
.	.	1B	.
.	.	.	2g#i/
=138	=138	=138	=138
0D	0A	0A	1a
.	.	.	1dd
=139	=139	=139	=139
1AA	0A	1r	1cc
[1D	.	1F	2b\
.	.	.	[2a/
=140	=140	=140	=140
1D]	0A	1D	2a/]
.	.	.	4g/
.	.	.	4f/
1C	.	1E	1e
=141	=141	=141	=141
1D	1B	1F	1d
1C	[1c	1G	[1e
=142	=142	=142	=142
0AA	2c\]	1A	2e/]
.	2B\	.	2d/
.	[1A	[1e	1c
=143	=143	=143	=143
0E	1A]	2e\]	0B
.	.	2.g\	.
.	1G#i	.	.
.	.	4f\	.
.	.	4e\	.
.	.	4d\	.
=144	=144	=144	=144
1F	1A	1c	1A
1A	1c	1r	1a
=145	=145	=145	=145
1G	1d	0g	1b
1E	1e	.	[1cc
=146	=146	=146	=146
0F	0A	1f	2cc\]
.	.	.	2b\
.	.	1d	[1a
=147	=147	=147	=147
0E	0B	0e	1a]
.	.	.	1g#i
=148	=148	=148	=148
0AA	[0A	1e	1.a
.	.	[1c	.
.	.	.	4g/
.	.	.	4f/
=149	=149	=149	=149
1r	0A]	2c\]	0e
.	.	2B\	.
1AA	.	1c	.
=150	=150	=150	=150
1BB	[0G	1d	1r
1C	.	1c	1e
=151	=151	=151	=151
2BB/	0G_	2d\	2d/
2.C/	.	2.e\	1c
4D\	.	4f\	.
[2E\	.	[2g\	4B/
.	.	.	4A/
=152	=152	=152	=152
4E\]	0G_	4g\]	2.B/
4F\	.	4f\	.
2.G\	.	4e\	.
.	.	4d\	4c/
.	.	[1d	1d
4A\	.	.	.
[2B\	.	.	.
=153	=153	=153	=153
4B\]	0G]	2d\]	1e
4A\	.	.	.
4G\	.	2c\	.
4F\	.	.	.
1E	.	2.c\	1g
.	.	4B\	.
=154	=154	=154	=154
2D\	[0A	1.d	1.f
1F	.	.	.
2E\	.	2c\	2g/
=155	=155	=155	=155
2.D\	0A]	1d	2a/
.	.	.	2b\
4C/	.	.	.
1AA	.	1e	1cc
=156	=156	=156	=156
1D	0r	1d	1f
2E\	.	[1c	2g/
[2F\	.	.	[2a/
=157	=157	=157	=157
2F\]	0r	2c\]	2a/]
2G\	.	2B\	1g
1D	.	1A	.
.	.	.	2f#i/
=158	=158	=158	=158
1E	0G	1G	0g
[1G	.	1r	.
=159	=159	=159	=159
1G]	0A	0r	1e
1F	.	.	1f
=160	=160	=160	=160
1G	0B	1g	1d
1D	.	2f\	[1dd
.	.	[2d\	.
=161	=161	=161	=161
0E	0G	2d\]	2dd\]
.	.	2e\	4cc\
.	.	.	4b\
.	.	2.c\	4cc\
.	.	.	4b\
.	.	.	4a/
.	.	4B\	4g/
=162	=162	=162	=162
1D	[0A	1d	2f/
.	.	.	2.a/
2C/	.	[1e	.
.	.	.	4b\
[2AA/	.	.	[2cc\
=163	=163	=163	=163
4AA/]	0A]	1e]	4cc\]
4BB/	.	.	4b\
2C/	.	.	4a/
.	.	.	4g/
1D	.	1d	2.f#i/
.	.	.	4e/
=164	=164	=164	=164
[0GGl	[0Gl	1.B	[0gl
.	.	2c\	.
=165	=165	=165	=165
0GG]	0G]	0dl	0g]
==	==	==	==
*-	*-	*-	*-
!!!RDF**kern: l=long note in original notation
!!!RDF**kern: i=editorial accidental
!!!RDF**kern: V=start of tuplet marker
!!!RDF**kern: Z=end of tuplet marker
!!!ENC:	Jesse Rodin; Victoria Chang 2011/04/05
!!!END:	2011/04/05/
!!!EED:	Jesse Rodin
!!!EEV:	2012/06/27/
!!attribution-level@Jos: 4 (questionable)
!!!ONB:	Translated from MusicXML and edited on 2012/06/27/ by Craig Sapp
!!muse2ps: T^@{OPR}^u^@{ONM}{. }@{OTL}^C^@{COA}?\n@{SCT}^i2I150v85,85,85,150Q16
